src/assets/logo.svg

<svg width="615" height="615" viewBox="0 0 615 615" fill="none" xmlns="http://www.w3.org/2000/svg">
<circle cx="307.5" cy="307.5" r="307.5" fill="#F50057"/>
<path d="M237.4 202.6V412H195.4V322.9H105.7V412H63.7V202.6H105.7V288.7H195.4V202.6H237.4ZM268.539 307C268.539 286.4 273.139 268 282.339 251.8C291.739 235.4 304.439 222.7 320.439 213.7C336.639 204.5 354.739 199.9 374.739 199.9C398.139 199.9 418.639 205.9 436.239 217.9C453.839 229.9 466.139 246.5 473.139 267.7H424.839C420.039 257.7 413.239 250.2 404.439 245.2C395.839 240.2 385.839 237.7 374.439 237.7C362.239 237.7 351.339 240.6 341.739 246.4C332.339 252 324.939 260 319.539 270.4C314.339 280.8 311.739 293 311.739 307C311.739 320.8 314.339 333 319.539 343.6C324.939 354 332.339 362.1 341.739 367.9C351.339 373.5 362.239 376.3 374.439 376.3C385.839 376.3 395.839 373.8 404.439 368.8C413.239 363.6 420.039 356 424.839 346H473.139C466.139 367.4 453.839 384.1 436.239 396.1C418.839 407.9 398.339 413.8 374.739 413.8C354.739 413.8 336.639 409.3 320.439 400.3C304.439 391.1 291.739 378.4 282.339 362.2C273.139 346 268.539 327.6 268.539 307ZM551.013 202.6V412H509.013V202.6H551.013Z" fill="white"/>
<circle cx="530" cy="169" r="21" fill="white"/>
</svg>

<svg width="615" height="615" fill="none" xmlns="http://www.w3.org/2000/svg"><circle cx="307.5" cy="307.5" r="307.5" fill="#F50057"/><path d="M237.4 202.6V412h-42v-89.1h-89.7V412h-42V202.6h42v86.1h89.7v-86.1h42zM268.539 307c0-20.6 4.6-39 13.8-55.2 9.4-16.4 22.1-29.1 38.1-38.1 16.2-9.2 34.3-13.8 54.3-13.8 23.4 0 43.9 6 61.5 18s29.9 28.6 36.9 49.8h-48.3c-4.8-10-11.6-17.5-20.4-22.5-8.6-5-18.6-7.5-30-7.5-12.2 0-23.1 2.9-32.7 8.7-9.4 5.6-16.8 13.6-22.2 24-5.2 10.4-7.8 22.6-7.8 36.6 0 13.8 2.6 26 7.8 36.6 5.4 10.4 12.8 18.5 22.2 24.3 9.6 5.6 20.5 8.4 32.7 8.4 11.4 0 21.4-2.5 30-7.5 8.8-5.2 15.6-12.8 20.4-22.8h48.3c-7 21.4-19.3 38.1-36.9 50.1-17.4 11.8-37.9 17.7-61.5 17.7-20 0-38.1-4.5-54.3-13.5-16-9.2-28.7-21.9-38.1-38.1-9.2-16.2-13.8-34.6-13.8-55.2zm282.474-104.4V412h-42V202.6h42z" fill="#fff"/><circle cx="530" cy="169" r="21" fill="#fff"/></svg>
